X:1
T:Veal Life Blues
M:4/4
L:1/4
K:Eb
 F| F F F A| c c2 c| B A F E| F2 z| c| c c c e| f f f e| c cc/2-B/2 A|\
 c2 c c| c c c e| f ff/2-e/2 c| c cc/2-B/2 A| c2 z F/2F/2| F F F A|\
 c c- B A/2A/2| B A F E| F3||

